src/images/pages/trade-explanation/zh_cn/up.svg

<?xml version="1.0" encoding="UTF-8"?>
<svg width="299px" height="197px" viewBox="0 0 299 197" version="1.1" xmlns="http://www.w3.org/2000/svg" xmlns:xlink="http://www.w3.org/1999/xlink">
    <!-- Generator: Sketch 53.1 (72631) - https://sketchapp.com -->
    <title>up</title>
    <desc>Created with Sketch.</desc>
    <g id="Page-1" stroke="none" stroke-width="1" fill="none" fill-rule="evenodd">
        <g id="up" fill-rule="nonzero">
            <polygon id="Path" fill="#F1F2F2" points="0 0 299 0 299 197 0 197"></polygon>
            <path d="M1.98671096,1.9798995 L1.98671096,195.020101 L297.013289,195.020101 L297.013289,1.9798995 L1.98671096,1.9798995 Z M299,0 L299,197 L0,197 L0,0 L299,0 Z" id="Path" fill="#C2C2C2"></path>
            <path d="M4,54.0670861 L4,52.8631465 L294,52.8631465 L294,54.0670861 L4,54.0670861 Z M4,76.3926677 L4,75.188728 L294,75.188728 L294,76.3926677 L4,76.3926677 Z M4,94.9973189 L4,93.7933792 L294,93.7933792 L294,94.9973189 L4,94.9973189 Z M4,135.927552 L4,134.723612 L294,134.723612 L294,135.927552 L4,135.927552 Z M4,154.532203 L4,153.328263 L294,153.328263 L294,154.532203 L4,154.532203 Z M4,176.857784 L4,175.653845 L294,175.653845 L294,176.857784 L4,176.857784 Z M38.72025,33 L39.9207756,33 L39.9207756,193 L38.72025,193 L38.72025,33 Z M75.8997371,33 L77.1002628,33 L77.1002628,193 L75.8997371,193 L75.8997371,33 Z M113.079225,33 L114.27975,33 L114.27975,193 L113.079225,193 L113.079225,33 Z M146.540763,33 L147.741288,33 L147.741288,193 L146.540763,193 L146.540763,33 Z M183.720249,33 L184.920775,33 L184.920775,193 L183.720249,193 L183.720249,33 Z M220.899737,33 L222.100263,33 L222.100263,193 L220.899737,193 L220.899737,33 Z M258.079224,33 L259.279749,33 L259.279749,193 L258.079224,193 L258.079224,33 Z" id="Shape" fill="#DFDEDE"></path>
            <polygon id="Path" fill="#2A3052" points="2.90644108 116.819829 2.90644108 115.604864 294.513238 115.604864 294.513238 116.819829"></polygon>
            <polygon id="Path" fill="#C2C2C2" points="2 30 2 28 297 28 297 30"></polygon>
            <path d="M186.939346,146.223466 L151.758396,146.223466 L146.340154,138 L140.921912,146.223466 L105.740963,146.223466 C103.107095,146.223466 101,148.36382 101,151.029876 L101,175.850474 C101,178.516529 103.144721,180.656883 105.740963,180.656883 L186.976972,180.656883 C189.61084,180.656883 191.717934,178.516529 191.717934,175.850474 L191.717934,151.029876 C191.717934,148.36382 189.573213,146.223466 186.939346,146.223466 Z" id="Path" fill="#E88024"></path>
            <path d="M72.1447863,94.2805909 L46.9154762,117.504784 C46.1820671,118.179905 45.0402279,118.132653 44.3651069,117.399244 C43.689986,116.665835 43.7372379,115.523995 44.4706471,114.848875 L70.9759553,90.4500941 C71.6887565,89.7939432 72.7924433,89.817575 73.4765055,90.503635 L108.027434,125.155468 L139.819689,79.4858607 C140.479643,78.5378361 141.847911,78.4451251 142.629718,79.2954589 L187.880274,128.512307 L226.022702,62.755206 C226.529784,61.8810021 227.655787,61.5934709 228.519923,62.1175265 L252.990821,76.9579168 C253.843163,77.4748204 254.11509,78.5848138 253.598187,79.4371563 C253.081283,80.2894989 251.97129,80.5614259 251.118947,80.0445222 L228.221787,66.1585263 L189.7725,132.444648 C189.161965,133.497203 187.706089,133.656389 186.882525,132.760639 L141.496098,83.3960097 L109.75591,128.990822 C109.113004,129.914358 107.790966,130.030873 106.996436,129.234024 L72.1447863,94.2805909 Z" id="Path" fill="#2A3052"></path>
            <ellipse id="Oval" fill="#FFFFFF" opacity="0.6" cx="252.054884" cy="78.5012195" rx="7.60753767" ry="7.85487805"></ellipse>
            <path d="M252.054884,87.5595477 C247.179941,87.5595477 243.243896,83.4955321 243.243896,78.5012195 C243.243896,73.5069069 247.179941,69.4428913 252.054884,69.4428913 C256.929827,69.4428913 260.865872,73.5069069 260.865872,78.5012195 C260.865872,83.4955321 256.929827,87.5595477 252.054884,87.5595477 Z M252.054884,85.1526474 C255.582995,85.1526474 258.458972,82.1831656 258.458972,78.5012195 C258.458972,74.8192734 255.582995,71.8497916 252.054884,71.8497916 C248.526773,71.8497916 245.650796,74.8192734 245.650796,78.5012195 C245.650796,82.1831656 248.526773,85.1526474 252.054884,85.1526474 Z" id="Oval" fill="#E88024"></path>
            <ellipse id="Oval" fill="#FFFFFF" opacity="0.6" cx="45.6921267" cy="116.176829" rx="7.60753767" ry="7.85487805"></ellipse>
            <path d="M45.6930616,125.235157 C40.8181186,125.235157 36.8820738,121.171142 36.8820738,116.176829 C36.8820738,111.182517 40.8181186,107.118501 45.6930616,107.118501 C50.5680047,107.118501 54.5040495,111.182517 54.5040495,116.176829 C54.5040495,121.171142 50.5680047,125.235157 45.6930616,125.235157 Z M45.6930616,122.828257 C49.2211726,122.828257 52.0971491,119.858775 52.0971491,116.176829 C52.0971491,112.494883 49.2211726,109.525401 45.6930616,109.525401 C42.1649506,109.525401 39.2889741,112.494883 39.2889741,116.176829 C39.2889741,119.858775 42.1649506,122.828257 45.6930616,122.828257 Z" id="Oval" fill="#E88024"></path>
            <g id="Group-3" transform="translate(244.714000, 119.251000)" fill="#6D6E71">
                <path d="M13.742,12.159 L14.626,12.159 L14.626,5.027 L15.797,7.117 L16.351,6.257 C15.309,4.902 14.734,4.172 14.626,4.068 L14.636,3.294 L16.046,3.294 L16.046,2.434 L14.636,2.434 L14.626,1.12798659e-13 L13.742,1.12798659e-13 L13.742,2.433 L12.055,2.433 L12.055,3.293 L13.634,3.293 C13.538,4.259 12.309,7.023 11.671,7.694 C11.683,7.697 11.826,8.048 12.101,8.747 C12.841,7.419 13.236,6.622 13.741,5.15 L13.741,12.159 L13.742,12.159 Z M-5.68434189e-14,12.211 L-5.68434189e-14,0.761 L8.963,0.761 L8.963,12.211 L7.945,12.211 L7.945,11.361 L1.001,11.361 L1.001,12.211 L-5.68434189e-14,12.211 Z M8.035,1.573 L1.001,1.573 L1.001,3.848 L8.035,3.848 L8.035,1.573 Z M8.012,4.678 L1.024,4.678 L1.024,7.02 L8.012,7.02 L8.012,4.678 Z M7.998,7.941 L1.038,7.941 L1.038,10.411 L7.998,10.411 L7.998,7.941 Z M16.768,0.762 L24.102,0.762 L24.102,1.562 L21.901,1.562 L21.901,2.555 L23.883,2.555 L23.883,5.671 L17.08,5.671 L17.08,2.555 L19.081,2.555 L19.081,1.561 L16.768,1.561 L16.768,0.761 L16.768,0.762 Z M21.115,1.622 L19.825,1.622 L19.825,2.572 L21.115,2.572 L21.115,1.622 Z M21.872,3.328 L21.872,4.948 L23.025,4.948 L23.025,3.328 L21.872,3.328 Z M21.1,3.318 L19.877,3.318 L19.877,4.945 L21.1,4.945 L21.1,3.318 Z M19.14,3.297 L17.966,3.297 L17.966,4.96 L19.14,4.96 L19.14,3.297 Z M23.514,6.299 L23.514,7.072 L17.367,7.072 L17.367,6.299 L23.514,6.299 Z M24.102,8.084 L24.102,8.824 L20.807,8.824 L20.807,12.154 L19.991,12.154 L19.991,8.824 L16.779,8.824 L16.779,8.084 L24.102,8.084 Z" id="Shape"></path>
                <path d="M21.808,9.953 C22.087,9.673 22.276,9.495 22.375,9.417 C22.721,9.679 23.915,10.845 24.35,11.502 C24.2,11.664 23.985,11.876 23.705,12.138 C23.49,11.714 22.858,10.986 21.809,9.953 L21.808,9.953 Z M18.48,9.146 C18.77,9.393 18.972,9.565 19.087,9.66 C18.367,10.616 17.642,11.36 16.914,11.894 C16.7154744,11.6755062 16.52759,11.4475754 16.351,11.211 C17.499,10.281 18.209,9.593 18.481,9.146 L18.48,9.146 Z" id="Shape"></path>
            </g>
            <path d="M243.31,104.815 L243.31,105.835 C241.78,106.39 240.055,106.84 238.105,107.2 L237.97,106.15 C240.01,105.82 241.78,105.37 243.31,104.815 Z M240.535,94.015 L241.54,94.405 C240.775,96.355 239.995,97.915 239.215,99.085 C239.92,98.995 240.625,98.89 241.345,98.77 C241.63,98.23 241.93,97.675 242.23,97.105 L243.175,97.45 C241.81,99.985 240.67,101.785 239.755,102.865 C240.895,102.64 242.02,102.34 243.13,101.965 L243.13,102.925 C241.51,103.48 239.95,103.855 238.45,104.05 L238.165,103.075 C238.36,102.985 238.525,102.88 238.66,102.76 C239.23,102.175 239.935,101.185 240.775,99.775 C239.92,99.91 239.065,100.03 238.195,100.15 L237.925,99.16 C238.09,99.085 238.24,98.95 238.375,98.755 C239.215,97.375 239.935,95.8 240.535,94.015 Z M243.13,95.92 L246.715,95.92 L246.715,94.105 L247.81,94.105 L247.81,95.92 L251.38,95.92 L251.38,96.97 L247.81,96.97 L247.81,99.19 L250.945,99.19 L250.945,100.24 L243.625,100.24 L243.625,99.19 L246.715,99.19 L246.715,96.97 L243.13,96.97 L243.13,95.92 Z M250.51,101.74 L250.51,107.77 L249.46,107.77 L249.46,107.05 L245.17,107.05 L245.17,107.77 L244.105,107.77 L244.105,101.74 L250.51,101.74 Z M245.17,106.03 L249.46,106.03 L249.46,102.76 L245.17,102.76 L245.17,106.03 Z M253.21,95.605 L259.075,95.605 L259.075,94.105 L260.185,94.105 L260.185,95.605 L266.02,95.605 L266.02,96.64 L260.185,96.64 L260.185,98.11 L264.91,98.11 L264.91,102.355 L261.1,102.355 C262.18,103.885 264.01,105.235 266.56,106.435 L265.825,107.365 C263.17,105.88 261.31,104.215 260.23,102.355 L260.185,102.355 L260.185,107.8 L259.075,107.8 L259.075,102.355 L259.03,102.355 C257.89,104.395 256,106.075 253.345,107.395 L252.715,106.405 C255.205,105.355 257.02,104.005 258.145,102.355 L254.38,102.355 L254.38,98.11 L259.075,98.11 L259.075,96.64 L253.21,96.64 L253.21,95.605 Z M263.83,101.365 L263.83,99.13 L260.185,99.13 L260.185,101.365 L263.83,101.365 Z M259.075,101.365 L259.075,99.13 L255.46,99.13 L255.46,101.365 L259.075,101.365 Z" id="结束" fill="#2A3052"></path>
            <path d="M31.81,132.96 L43.495,132.96 L43.495,134.01 L40.99,134.01 L40.99,137.985 L44.275,137.985 L44.275,139.02 L40.99,139.02 L40.99,145.665 L39.895,145.665 L39.895,139.02 L35.56,139.02 C35.425,140.565 35.14,141.84 34.69,142.86 C34.12,144.12 33.175,145.095 31.855,145.785 L31.27,144.855 C32.485,144.165 33.34,143.25 33.82,142.11 C34.135,141.24 34.345,140.22 34.465,139.02 L31,139.02 L31,137.985 L34.525,137.985 C34.525,137.79 34.54,137.61 34.54,137.46 L34.54,134.01 L31.81,134.01 L31.81,132.96 Z M35.65,134.01 L35.65,137.46 C35.65,137.64 35.635,137.82 35.635,137.985 L39.895,137.985 L39.895,134.01 L35.65,134.01 Z M47.59,132 L48.655,132.09 C48.52,133.11 48.385,134.055 48.25,134.925 L50.47,134.925 L50.47,135.555 C50.35,137.985 49.93,140.07 49.21,141.84 C49.915,142.575 50.5,143.235 50.95,143.835 L50.23,144.675 C49.81,144.12 49.315,143.52 48.73,142.89 C48.13,144.03 47.395,145.02 46.495,145.86 L45.82,145.005 C46.705,144.195 47.425,143.235 47.995,142.095 C47.395,141.48 46.75,140.85 46.06,140.19 C46.42,138.885 46.735,137.475 47.005,135.96 L45.805,135.96 L45.805,134.925 L47.185,134.925 C47.335,133.98 47.47,133.005 47.59,132 Z M48.445,141.06 C49.015,139.56 49.345,137.865 49.45,135.96 L48.085,135.96 C47.8,137.535 47.515,138.84 47.215,139.875 C47.65,140.28 48.055,140.67 48.445,141.06 Z M58.39,139.44 L58.39,145.83 L57.355,145.83 L57.355,144.93 L52.765,144.93 L52.765,145.83 L51.73,145.83 L51.73,139.44 L58.39,139.44 Z M52.765,143.91 L57.355,143.91 L57.355,140.43 L52.765,140.43 L52.765,143.91 Z M51.145,138.09 L50.98,137.115 C51.85,136.665 52.93,134.985 54.22,132.045 L55.24,132.39 C54.34,134.34 53.455,135.885 52.555,137.04 C54.235,136.935 55.84,136.755 57.355,136.515 C56.935,135.69 56.515,134.925 56.08,134.235 L57.01,133.785 C57.835,135.105 58.615,136.545 59.335,138.12 L58.33,138.6 C58.15,138.195 57.985,137.805 57.805,137.43 C55.81,137.715 53.59,137.94 51.145,138.09 Z" id="开始" fill="#2A3052"></path>
            <path d="M26.28,14.915 L25.32,14.915 L25.32,19.685 C25.8,19.49 26.28,19.25 26.76,18.95 L27.03,20.375 C26.145,20.855 25.125,21.245 23.985,21.545 L23.34,20.18 C23.7,20.045 23.895,19.85 23.895,19.58 L23.895,14.915 L23.025,14.915 L23.025,13.49 L23.895,13.49 L23.895,7.73 L25.32,7.73 L25.32,13.49 L29.355,13.49 L29.355,14.915 L27.585,14.915 C27.72,17.165 28.395,19.07 29.595,20.63 L28.53,21.68 C27.165,19.76 26.415,17.51 26.28,14.915 Z M20.535,12.935 L20.385,14.945 L22.785,14.945 C22.785,17.48 22.71,19.175 22.56,20.03 C22.41,20.9 21.75,21.365 20.58,21.455 C20.31,21.455 20.025,21.425 19.74,21.395 L19.38,20.015 C19.65,20.045 19.935,20.075 20.235,20.075 C20.775,20.075 21.075,19.835 21.165,19.37 C21.24,18.89 21.285,17.9 21.285,16.37 L18.855,16.37 L19.2,11.48 L21.225,11.48 L21.225,9.59 L19.08,9.59 L19.08,8.15 L22.74,8.15 L22.74,12.935 L20.535,12.935 Z M16.92,7.85 C17.745,8.57 18.45,9.275 19.02,9.98 L17.94,11.06 C17.445,10.37 16.755,9.635 15.87,8.855 L16.92,7.85 Z M16.59,11.435 C17.4,12.155 18.09,12.89 18.66,13.61 L17.595,14.675 C17.115,13.985 16.425,13.25 15.54,12.44 L16.59,11.435 Z M17.34,15.47 L18.69,16.01 C18.18,17.915 17.625,19.715 17.025,21.395 L15.645,20.795 C16.29,19.055 16.86,17.27 17.34,15.47 Z M28.44,8.48 L29.535,9.365 C28.59,10.955 27.48,12.11 26.205,12.86 L25.425,11.78 C26.595,11.045 27.6,9.95 28.44,8.48 Z" id="涨" fill="#000000"></path>
            <path d="M148.672,163.362 L148.672,169.72 L147.528,169.72 L147.528,164.55 L144.47,164.55 L144.47,169.676 L143.304,169.676 L143.304,163.362 L148.672,163.362 Z M146.01,170.644 C145.922,170.864 145.834,171.062 145.746,171.238 C145.262,172.118 144.492,172.8 143.392,173.284 L142.732,172.25 C143.744,171.788 144.448,171.194 144.866,170.49 C145.218,169.72 145.416,168.73 145.46,167.498 L145.46,165.584 L146.516,165.584 L146.516,167.498 C146.494,168.246 146.428,168.928 146.318,169.522 C147.154,170.248 147.858,170.974 148.43,171.7 L147.594,172.536 C147.176,171.92 146.648,171.304 146.01,170.644 Z M136.418,154.562 L145.482,154.562 C145.262,154.078 145.042,153.66 144.8,153.264 L146.384,153 C146.604,153.462 146.802,153.99 146.978,154.562 L155.866,154.562 L155.866,155.706 L139.872,155.706 L139.872,156.85 L154.37,156.85 L154.37,157.972 L138.398,157.972 L138.398,155.706 L136.418,155.706 L136.418,154.562 Z M139.014,159.006 L153.204,159.006 L153.204,162.284 L139.014,162.284 L139.014,159.006 Z M151.664,161.25 L151.664,160.04 L140.554,160.04 L140.554,161.25 L151.664,161.25 Z M138.684,167.234 C138.662,167.784 138.618,168.312 138.574,168.796 L140.994,168.796 L140.994,167.234 L138.684,167.234 Z M140.994,166.2 L140.994,164.616 L138.684,164.616 L138.684,166.2 L140.994,166.2 Z M138.42,169.83 C138.156,171.26 137.672,172.47 136.99,173.482 L136,172.58 C136.924,171.172 137.386,169.412 137.408,167.256 L137.408,163.406 L142.248,163.406 L142.248,171.876 C142.248,172.866 141.72,173.372 140.686,173.372 L139.784,173.372 L139.454,172.184 C139.74,172.228 140.026,172.25 140.29,172.25 C140.752,172.25 140.994,171.964 140.994,171.436 L140.994,169.83 L138.42,169.83 Z M155.052,173.13 L154.282,173.13 C153.49,173.13 153.116,172.69 153.116,171.854 L153.116,164.66 L151.026,164.66 L151.026,166.926 C151.026,168.554 150.916,169.808 150.696,170.688 C150.454,171.568 149.948,172.492 149.178,173.46 L148.188,172.602 C148.848,171.81 149.288,171.084 149.508,170.402 C149.728,169.698 149.838,168.532 149.838,166.926 L149.838,163.406 L154.304,163.406 L154.304,171.48 C154.304,171.81 154.436,171.986 154.722,171.986 L154.854,171.986 C154.986,171.986 155.096,171.876 155.162,171.656 C155.228,171.436 155.294,170.71 155.36,169.456 L156.372,169.808 C156.24,171.304 156.108,172.228 155.954,172.602 C155.778,172.954 155.492,173.13 155.052,173.13 Z M151.906,166.618 C152.302,167.498 152.676,168.422 152.984,169.434 L152.148,169.808 C151.818,168.708 151.466,167.74 151.07,166.904 L151.906,166.618 Z M159.782,155.508 L161.828,155.508 L161.498,166.992 L160.134,166.992 L159.782,155.508 Z M160.794,168.598 C161.19,168.598 161.498,168.708 161.762,168.972 C162.004,169.214 162.136,169.522 162.136,169.896 C162.136,170.292 162.004,170.6 161.762,170.842 C161.498,171.084 161.168,171.216 160.794,171.216 C160.42,171.216 160.112,171.084 159.87,170.842 C159.606,170.578 159.474,170.27 159.474,169.896 C159.474,169.522 159.606,169.214 159.87,168.972 C160.112,168.708 160.42,168.598 160.794,168.598 Z" id="赢!" fill="#FFFFFF"></path>
        </g>
    </g>
</svg>

<svg width="299" height="197" xmlns="http://www.w3.org/2000/svg"><g fill-rule="nonzero" fill="none"><path fill="#F1F2F2" d="M0 0h299v197H0z"/><path d="M1.987 1.98v193.04h295.026V1.98H1.987zM299 0v197H0V0h299z" fill="#C2C2C2"/><path d="M4 54.067v-1.204h290v1.204H4zm0 22.326v-1.204h290v1.204H4zm0 18.604v-1.204h290v1.204H4zm0 40.93v-1.203h290v1.204H4zm0 18.605v-1.204h290v1.204H4zm0 22.326v-1.204h290v1.204H4zM38.72 33h1.2v160h-1.2V33zm37.18 0h1.2v160h-1.2V33zm37.18 0h1.2v160h-1.2V33zm33.46 0h1.201v160h-1.2V33zm37.18 0h1.2v160h-1.2V33zm37.18 0h1.2v160h-1.2V33zm37.18 0h1.2v160h-1.2V33z" fill="#DFDEDE"/><path fill="#2A3052" d="M2.906 116.82v-1.215h291.607v1.215z"/><path fill="#C2C2C2" d="M2 30v-2h295v2z"/><path d="M186.94 146.223h-35.182L146.34 138l-5.418 8.223H105.74c-2.634 0-4.741 2.14-4.741 4.807v24.82c0 2.667 2.145 4.807 4.741 4.807h81.236c2.634 0 4.74-2.14 4.74-4.807v-24.82c0-2.666-2.144-4.807-4.778-4.807z" fill="#E88024"/><path d="M72.145 94.28l-25.23 23.225a1.805 1.805 0 0 1-2.444-2.656L70.976 90.45a1.805 1.805 0 0 1 2.5.054l34.551 34.651 31.793-45.67a1.805 1.805 0 0 1 2.81-.19l45.25 49.217 38.143-65.757a1.805 1.805 0 0 1 2.497-.637l24.47 14.84a1.805 1.805 0 0 1-1.871 3.087l-22.897-13.886-38.45 66.286a1.805 1.805 0 0 1-2.89.316l-45.386-49.365-31.74 45.595a1.805 1.805 0 0 1-2.76.243L72.145 94.281z" fill="#2A3052"/><ellipse fill="#FFF" opacity=".6" cx="252.055" cy="78.501" rx="7.608" ry="7.855"/><path d="M252.055 87.56c-4.875 0-8.811-4.064-8.811-9.059 0-4.994 3.936-9.058 8.81-9.058 4.876 0 8.812 4.064 8.812 9.058 0 4.995-3.936 9.059-8.811 9.059zm0-2.407c3.528 0 6.404-2.97 6.404-6.652s-2.876-6.651-6.404-6.651-6.404 2.97-6.404 6.651c0 3.682 2.876 6.652 6.404 6.652z" fill="#E88024"/><ellipse fill="#FFF" opacity=".6" cx="45.692" cy="116.177" rx="7.608" ry="7.855"/><path d="M45.693 125.235c-4.875 0-8.81-4.064-8.81-9.058s3.935-9.058 8.81-9.058 8.811 4.064 8.811 9.058-3.936 9.058-8.81 9.058zm0-2.407c3.528 0 6.404-2.97 6.404-6.651 0-3.682-2.876-6.652-6.404-6.652s-6.404 2.97-6.404 6.652 2.876 6.651 6.404 6.651z" fill="#E88024"/><g fill="#6D6E71"><path d="M258.456 131.41h.884v-7.132l1.171 2.09.554-.86c-1.042-1.355-1.617-2.085-1.725-2.189l.01-.774h1.41v-.86h-1.41l-.01-2.434h-.884v2.433h-1.687v.86h1.579c-.096.966-1.325 3.73-1.963 4.401.012.003.155.354.43 1.053.74-1.328 1.135-2.125 1.64-3.597v7.009h.001zm-13.742.052v-11.45h8.963v11.45h-1.018v-.85h-6.944v.85h-1.001zm8.035-10.638h-7.034v2.275h7.034v-2.275zm-.023 3.105h-6.988v2.342h6.988v-2.342zm-.014 3.263h-6.96v2.47h6.96v-2.47zm8.77-7.179h7.334v.8h-2.201v.993h1.982v3.116h-6.803v-3.116h2.001v-.994h-2.313v-.8.001zm4.347.86h-1.29v.95h1.29v-.95zm.757 1.706v1.62h1.153v-1.62h-1.153zm-.772-.01h-1.223v1.627h1.223v-1.627zm-1.96-.021h-1.174v1.663h1.174v-1.663zm4.374 3.002v.773h-6.147v-.773h6.147zm.588 1.785v.74h-3.295v3.33h-.816v-3.33h-3.212v-.74h7.323z"/><path d="M266.522 129.204c.279-.28.468-.458.567-.536.346.262 1.54 1.428 1.975 2.085-.15.162-.365.374-.645.636-.215-.424-.847-1.152-1.896-2.185h-.001zm-3.328-.807c.29.247.492.419.607.514-.72.956-1.445 1.7-2.173 2.234a9.192 9.192 0 0 1-.563-.683c1.148-.93 1.858-1.618 2.13-2.065h-.001z"/></g><path d="M243.31 104.815v1.02c-1.53.555-3.255 1.005-5.205 1.365l-.135-1.05c2.04-.33 3.81-.78 5.34-1.335zm-2.775-10.8l1.005.39c-.765 1.95-1.545 3.51-2.325 4.68.705-.09 1.41-.195 2.13-.315.285-.54.585-1.095.885-1.665l.945.345c-1.365 2.535-2.505 4.335-3.42 5.415a26.668 26.668 0 0 0 3.375-.9v.96c-1.62.555-3.18.93-4.68 1.125l-.285-.975c.195-.09.36-.195.495-.315.57-.585 1.275-1.575 2.115-2.985-.855.135-1.71.255-2.58.375l-.27-.99c.165-.075.315-.21.45-.405.84-1.38 1.56-2.955 2.16-4.74zm2.595 1.905h3.585v-1.815h1.095v1.815h3.57v1.05h-3.57v2.22h3.135v1.05h-7.32v-1.05h3.09v-2.22h-3.585v-1.05zm7.38 5.82v6.03h-1.05v-.72h-4.29v.72h-1.065v-6.03h6.405zm-5.34 4.29h4.29v-3.27h-4.29v3.27zm8.04-10.425h5.865v-1.5h1.11v1.5h5.835v1.035h-5.835v1.47h4.725v4.245h-3.81c1.08 1.53 2.91 2.88 5.46 4.08l-.735.93c-2.655-1.485-4.515-3.15-5.595-5.01h-.045v5.445h-1.11v-5.445h-.045c-1.14 2.04-3.03 3.72-5.685 5.04l-.63-.99c2.49-1.05 4.305-2.4 5.43-4.05h-3.765V98.11h4.695v-1.47h-5.865v-1.035zm10.62 5.76V99.13h-3.645v2.235h3.645zm-4.755 0V99.13h-3.615v2.235h3.615zM31.81 132.96h11.685v1.05H40.99v3.975h3.285v1.035H40.99v6.645h-1.095v-6.645H35.56c-.135 1.545-.42 2.82-.87 3.84-.57 1.26-1.515 2.235-2.835 2.925l-.585-.93c1.215-.69 2.07-1.605 2.55-2.745.315-.87.525-1.89.645-3.09H31v-1.035h3.525c0-.195.015-.375.015-.525v-3.45h-2.73v-1.05zm3.84 1.05v3.45c0 .18-.015.36-.015.525h4.26v-3.975H35.65zM47.59 132l1.065.09a128.68 128.68 0 0 1-.405 2.835h2.22v.63c-.12 2.43-.54 4.515-1.26 6.285.705.735 1.29 1.395 1.74 1.995l-.72.84a23.161 23.161 0 0 0-1.5-1.785c-.6 1.14-1.335 2.13-2.235 2.97l-.675-.855a9.862 9.862 0 0 0 2.175-2.91 79.046 79.046 0 0 0-1.935-1.905 46.84 46.84 0 0 0 .945-4.23h-1.2v-1.035h1.38c.15-.945.285-1.92.405-2.925zm.855 9.06c.57-1.5.9-3.195 1.005-5.1h-1.365c-.285 1.575-.57 2.88-.87 3.915.435.405.84.795 1.23 1.185zm9.945-1.62v6.39h-1.035v-.9h-4.59v.9H51.73v-6.39h6.66zm-5.625 4.47h4.59v-3.48h-4.59v3.48zm-1.62-5.82l-.165-.975c.87-.45 1.95-2.13 3.24-5.07l1.02.345c-.9 1.95-1.785 3.495-2.685 4.65a51.085 51.085 0 0 0 4.8-.525c-.42-.825-.84-1.59-1.275-2.28l.93-.45a37.871 37.871 0 0 1 2.325 4.335l-1.005.48c-.18-.405-.345-.795-.525-1.17-1.995.285-4.215.51-6.66.66z" fill="#2A3052"/><path d="M26.28 14.915h-.96v4.77a9.33 9.33 0 0 0 1.44-.735l.27 1.425c-.885.48-1.905.87-3.045 1.17l-.645-1.365c.36-.135.555-.33.555-.6v-4.665h-.87V13.49h.87V7.73h1.425v5.76h4.035v1.425h-1.77c.135 2.25.81 4.155 2.01 5.715l-1.065 1.05c-1.365-1.92-2.115-4.17-2.25-6.765zm-5.745-1.98l-.15 2.01h2.4c0 2.535-.075 4.23-.225 5.085-.15.87-.81 1.335-1.98 1.425-.27 0-.555-.03-.84-.06l-.36-1.38c.27.03.555.06.855.06.54 0 .84-.24.93-.705.075-.48.12-1.47.12-3h-2.43l.345-4.89h2.025V9.59H19.08V8.15h3.66v4.785h-2.205zM16.92 7.85c.825.72 1.53 1.425 2.1 2.13l-1.08 1.08c-.495-.69-1.185-1.425-2.07-2.205l1.05-1.005zm-.33 3.585c.81.72 1.5 1.455 2.07 2.175l-1.065 1.065c-.48-.69-1.17-1.425-2.055-2.235l1.05-1.005zm.75 4.035l1.35.54a69.452 69.452 0 0 1-1.665 5.385l-1.38-.6a59.372 59.372 0 0 0 1.695-5.325zm11.1-6.99l1.095.885c-.945 1.59-2.055 2.745-3.33 3.495l-.78-1.08c1.17-.735 2.175-1.83 3.015-3.3z" fill="#000"/><path d="M148.672 163.362v6.358h-1.144v-5.17h-3.058v5.126h-1.166v-6.314h5.368zm-2.662 7.282c-.088.22-.176.418-.264.594-.484.88-1.254 1.562-2.354 2.046l-.66-1.034c1.012-.462 1.716-1.056 2.134-1.76.352-.77.55-1.76.594-2.992v-1.914h1.056v1.914a13.42 13.42 0 0 1-.198 2.024 16.19 16.19 0 0 1 2.112 2.178l-.836.836c-.418-.616-.946-1.232-1.584-1.892zm-9.592-16.082h9.064a11.86 11.86 0 0 0-.682-1.298l1.584-.264c.22.462.418.99.594 1.562h8.888v1.144h-15.994v1.144h14.498v1.122h-15.972v-2.266h-1.98v-1.144zm2.596 4.444h14.19v3.278h-14.19v-3.278zm12.65 2.244v-1.21h-11.11v1.21h11.11zm-12.98 5.984c-.022.55-.066 1.078-.11 1.562h2.42v-1.562h-2.31zm2.31-1.034v-1.584h-2.31v1.584h2.31zm-2.574 3.63c-.264 1.43-.748 2.64-1.43 3.652l-.99-.902c.924-1.408 1.386-3.168 1.408-5.324v-3.85h4.84v8.47c0 .99-.528 1.496-1.562 1.496h-.902l-.33-1.188c.286.044.572.066.836.066.462 0 .704-.286.704-.814v-1.606h-2.574zm16.632 3.3h-.77c-.792 0-1.166-.44-1.166-1.276v-7.194h-2.09v2.266c0 1.628-.11 2.882-.33 3.762-.242.88-.748 1.804-1.518 2.772l-.99-.858c.66-.792 1.1-1.518 1.32-2.2.22-.704.33-1.87.33-3.476v-3.52h4.466v8.074c0 .33.132.506.418.506h.132c.132 0 .242-.11.308-.33.066-.22.132-.946.198-2.2l1.012.352c-.132 1.496-.264 2.42-.418 2.794-.176.352-.462.528-.902.528zm-3.146-6.512c.396.88.77 1.804 1.078 2.816l-.836.374c-.33-1.1-.682-2.068-1.078-2.904l.836-.286zm7.876-11.11h2.046l-.33 11.484h-1.364l-.352-11.484zm1.012 13.09c.396 0 .704.11.968.374.242.242.374.55.374.924 0 .396-.132.704-.374.946a1.402 1.402 0 0 1-.968.374 1.26 1.26 0 0 1-.924-.374 1.28 1.28 0 0 1-.396-.946c0-.374.132-.682.396-.924.242-.264.55-.374.924-.374z" fill="#FFF"/></g></svg>
